img/ico/doc-ico.svg

<svg width="70" height="70" viewBox="0 0 70 70" fill="none" xmlns="http://www.w3.org/2000/svg">
<path d="M43.4766 4.82373H4V64.8237H52.8705V14.1336L43.4766 4.82373ZM44.1176 8.52572L49.1351 13.4984H44.1176V8.52572ZM50.6823 62.655H6.18828V6.99233H41.9294V15.667H50.6823V62.655Z" fill="#DC3545"/>
<path d="M61.2588 12.4858L56.5176 23.7629V64.1003H65.9999V23.7629L61.2588 12.4858ZM63.8116 61.9316H58.7057V56.8713H63.8116V61.9316ZM63.8116 54.7027H58.7057V27.9558H63.8116V54.7027ZM63.8116 25.787H58.7057V24.1967L61.2586 18.1243L63.8115 24.1967L63.8116 25.787Z" fill="#DC3545"/>
<path d="M46.6703 53.2573H28.4351V55.426H46.6703V53.2573Z" fill="#DC3545"/>
<path d="M43.5271 47.8905C42.9377 48.6376 42.6626 48.9199 42.1076 48.9199C41.5526 48.9199 41.2775 48.6375 40.6882 47.8905C40.0682 47.1046 39.2189 46.0283 37.5448 46.0283C35.872 46.0283 35.024 47.1049 34.4047 47.8913C33.8167 48.6378 33.5423 48.9199 32.9895 48.9199C32.4371 48.9199 32.1628 48.6378 31.5749 47.8914C30.9555 47.1052 30.1076 46.0283 28.4351 46.0283V48.197C28.9875 48.197 29.2618 48.4791 29.8497 49.2255C30.4688 50.0117 31.3168 51.0886 32.9891 51.0886C34.6619 51.0886 35.51 50.012 36.1292 49.2257C36.7173 48.4791 36.9917 48.197 37.5444 48.197C38.0995 48.197 38.3745 48.4794 38.9639 49.2265C39.5839 50.0125 40.4331 51.0887 42.1073 51.0887C43.7814 51.0887 44.6306 50.0125 45.2506 49.2265C45.84 48.4794 46.1151 48.197 46.6701 48.197V46.0283C44.9962 46.0284 44.1471 47.1047 43.5271 47.8905Z" fill="#DC3545"/>
<path d="M32.0822 57.5942H28.4351V59.763H32.0822V57.5942Z" fill="#DC3545"/>
<path d="M37.9176 57.5942H34.2705V59.763H37.9176V57.5942Z" fill="#DC3545"/>
<path d="M46.6705 57.5942H43.0234V59.763H46.6705V57.5942Z" fill="#DC3545"/>
<path d="M24.7885 10.6064H10.2002V12.7752H24.7885V10.6064Z" fill="#DC3545"/>
<path d="M29.8943 22.1729H10.2002V24.3416H29.8943V22.1729Z" fill="#DC3545"/>
<path d="M19.6826 46.0283H10.2002V48.197H19.6826V46.0283Z" fill="#DC3545"/>
<path d="M19.6826 51.8115H10.2002V53.9802H19.6826V51.8115Z" fill="#DC3545"/>
<path d="M46.6707 27.9565H10.2002V30.1253H46.6707V27.9565Z" fill="#DC3545"/>
<path d="M46.6707 33.7393H10.2002V35.908H46.6707V33.7393Z" fill="#DC3545"/>
<path d="M46.6707 39.5225H13.8472V41.6912H46.6707V39.5225Z" fill="#DC3545"/>
<path d="M13.8473 14.9443H10.2002V17.1131H13.8473V14.9443Z" fill="#DC3545"/>
<path d="M19.6823 14.9443H16.0352V17.1131H19.6823V14.9443Z" fill="#DC3545"/>
</svg>

<svg width="70" height="70" viewBox="0 0 70 70" fill="currentColor" xmlns="http://www.w3.org/2000/svg" class="svg-icon">
    <path
        d="M43.477 4.824H4v60h48.87v-50.69zm.64 3.702 5.018 4.972h-5.017zm6.565 54.129H6.188V6.992H41.93v8.675h8.753zM61.259 12.486l-4.741 11.277V64.1H66V23.763zm2.553 49.446h-5.106v-5.06h5.106zm0-7.23h-5.106V27.957h5.106zm0-28.915h-5.106v-1.59l2.553-6.073 2.553 6.073z" />
    <path
        d="M46.67 53.257H28.435v2.169H46.67zM43.527 47.89c-.59.748-.864 1.03-1.42 1.03-.554 0-.83-.282-1.419-1.03-.62-.785-1.47-1.862-3.143-1.862s-2.521 1.077-3.14 1.863c-.588.747-.863 1.029-1.416 1.029s-.826-.282-1.414-1.029c-.62-.786-1.467-1.863-3.14-1.863v2.169c.553 0 .827.282 1.415 1.028.619.787 1.467 1.864 3.14 1.864 1.672 0 2.52-1.077 3.14-1.863.587-.747.862-1.029 1.414-1.029.556 0 .83.282 1.42 1.03.62.786 1.47 1.862 3.143 1.862 1.674 0 2.524-1.076 3.144-1.862.589-.748.864-1.03 1.42-1.03v-2.169c-1.675 0-2.524 1.077-3.144 1.863M32.082 57.594h-3.647v2.169h3.647zM37.918 57.594H34.27v2.169h3.648zM46.67 57.594h-3.647v2.169h3.647zM24.789 10.606H10.2v2.17H24.79zM29.894 22.173H10.2v2.169h19.694zM19.683 46.028H10.2v2.169h9.483zM19.683 51.812H10.2v2.168h9.483zM46.67 27.957H10.2v2.168h36.47zM46.67 33.74H10.2v2.168h36.47zM46.67 39.523H13.848v2.168h32.824zM13.847 14.944H10.2v2.17h3.647zM19.682 14.944h-3.647v2.17h3.647z" />
</svg>
